assets/favicon.svg

<svg x="0.25pt" y="1.25pt" width="19.5pt" height="17.0676pt" viewBox="0.25 1.25 19.5 17.0676" xmlns="http://www.w3.org/2000/svg" xmlns:xlink="http://www.w3.org/1999/xlink">
  <path stroke="#00cc44" stroke-width="1.2" stroke-linecap="round" stroke-linejoin="round" fill="#edfdf2" d="M1,6.13513 C1,4.96757,1.00122,4.16486,1.0827,3.56284 C1.16054,2.98148,1.30162,2.69689,1.49865,2.49865 C1.69689,2.3004,1.98149,2.16054,2.56284,2.0827 C3.16609,2,3.96757,2,5.13513,2 C5.27419,2,5.41325,2,5.5523,2 C6.60676,2,6.93027,2.01216,7.21122,2.13014 C7.49338,2.24689,7.73176,2.46581,8.47609,3.21135 C8.74243,3.4777,9.00879,3.74406,9.27513,4.01041 C9.30554,4.04081,9.33595,4.07122,9.36635,4.10162 C9.98054,4.71581,10.4305,5.16581,11.0131,5.40784 C11.5969,5.64987,12.2342,5.64987,13.1014,5.64865 C13.1014,5.64865,14.8649,5.64865,14.8649,5.64865 C16.0324,5.64865,16.8351,5.64987,17.4372,5.73135 C18.0185,5.80918,18.3031,5.95027,18.5014,6.1473 C18.6996,6.34554,18.8395,6.63013,18.9173,7.21149 C18.9988,7.81473,19,8.61622,19,9.78378 C19,11,19,12.2162,19,13.4324 C19,14.6,18.9988,15.4027,18.9173,16.0047 C18.8395,16.5861,18.6984,16.8707,18.5014,17.0689 C18.3031,17.2672,18.0185,17.407,17.4372,17.4849 C16.8339,17.5663,16.0324,17.5676,14.8649,17.5676 C14.8649,17.5676,5.13513,17.5676,5.13513,17.5676 C3.96757,17.5676,3.16487,17.5664,2.56284,17.4849 C1.98149,17.407,1.69689,17.2659,1.49865,17.0689 C1.30041,16.8707,1.16054,16.5861,1.0827,16.0047 C1,15.4015,1,14.6,1,13.4324 C1,13.4324,1,6.13513,1,6.13513 z" />
</svg>

<svg xmlns="http://www.w3.org/2000/svg" x=".333" y="1.667" width="26" height="22.757" viewBox="0.25 1.25 19.5 17.068">
  <path stroke="#222" stroke-width="1.2" stroke-linecap="round" stroke-linejoin="round" fill="#fff" d="M1 6.135c0-1.167.001-1.97.083-2.572.078-.582.219-.866.416-1.064.198-.199.482-.338 1.064-.416C3.166 2 3.968 2 5.135 2h.417c1.055 0 1.378.012 1.66.13.281.117.52.336 1.264 1.081l.8.8.09.09c.615.615 1.065 1.065 1.647 1.307.584.242 1.221.242 2.088.24h1.764c1.167 0 1.97.002 2.572.083.581.078.866.22 1.064.416.199.199.338.483.416 1.064C19 7.815 19 8.616 19 9.784v3.648c0 1.168-.001 1.97-.083 2.573-.078.581-.219.866-.416 1.064-.198.198-.483.338-1.064.416-.603.081-1.405.083-2.572.083h-9.73c-1.167 0-1.97-.002-2.572-.083-.582-.078-.866-.22-1.064-.416-.199-.198-.338-.483-.416-1.064C1 15.402 1 14.6 1 13.432V6.135z" />
</svg>
